X:1
T:SATISFIED
T:SATISFIED
T:AN EMOTIONAL DRAG
T:THERON BENNETT
T:Copyright 1904 by Victor Kremer Co.
T:Copyright 1904 by Victor Kremer Co.
T:Copyright 1904 by Victor Kremer Co.
T:Copyright 1904 by Victor Kremer Co.
C:THERON BENNETT
Z:Copyright 1904 by Victor Kremer Co.
%%score { ( 1 2 ) | 3 }
L:1/8
Q:1/4=90
M:2/4
K:Bb
V:1 treble nm="Piano" snm="Pno."
V:2 treble 
V:3 bass 
V:1
"_L.H." dc/B/ dc/B/ | g=e/f/- f2 | [^Gf]/[Gf][Gf]/ [Gf][Gf] | [Af]2 z2 |: %4
w: ||||
!mf!"^stacc." dc/B/ dc/B/ | g/f/d/B/- B/A/B/=B/ | c=B/c/- c/B/c/e/ | G2 z/ G/A/B/ | dc/A/ dc/A/ | %9
w: |||||
 d/c/A/F/- F/F/G/A/ | Bd/f/- f/=e/g/e/ | [Acf]2 z F | dc/B/ dc/B/ | g/f/d/B/- B/A/B/=B/ | %14
w: |||||
 c=B/c/- c/B/c/e/ | G2 z/ G/A/B/ | dc/A/ dc/A/ | d/c/A/F/- F/F/G/A/ | [FB]4- |1 [FB] z FB :|2 %20
w: ||||||
{/x-} B z [Bd]2 |:"^marcato." [EGc][EGc] [EG]>[EG] | [Gc][Gc]/[Gd]/- [Gd][Gc] | %23
w: * I'm|sat- is- fied I'm|sat- is- fied * I've|
 [DFB][DFB] [DF]>[DF] | [DFB][DFB]/[DFc]/- [DFc]>[DFB] | A/G/A/<[A,CEF]/- [A,CEF]2- | %26
w: got my ba- by|by my side * I'm|sat- is- * fied *|
 [A,CEF] f/f/ (g/f/)g | d4- | d z !>![Bd]2 | [EGc][EGc] [EG]>[EG] | [Gc][Gc]/[Gd]/- [Gd][Gc] | %31
w: * I'm * sat- * is-|fied|* I'm|sat- is- fied I'm|sat- is- fied * *|
 [DFB][DFB] [DF]/[DF]/[DF] | [DFB][DFB]/[DFc]/- [DFc]>[DFB] | A/G/A/<[A,CEF]/- [A,CEF]2- | %34
w: She's my hon- ey babe|She's my pride * I'm|sat- is- * fied *|
 [A,CEF][Ge] [Fd][Ec] | [DB]>!f!F G/FD/ |1 B, z !>![Bd]2 :|2 B, z !>![Bdfb] z || %38
w: * I'm sat- is-|fied. * * * *|* I'm||
[K:Eb][M:2/4]!ff!"^TRIO." [Bb] [cc']2 [Gg] | [Aa][Bb][cc'][ee'] | [dd']z[dd'] z | z [Gg][Aa][Gg] | %42
w: ||||
!p! [=E=e]"_dolce."[Ff] !>![Bdb]2 | [=E=e][Ff] !>![Bdb]2 | [^F^f][Gg] [Ee][Cc] | [B,DB]3 [Ee] | %46
w: ||||
 [Dd][Ee][=E=e][Ff] | [Cc]3 [Dd] | [Ee][Ff][Gg][cc'] | [Bb][Gg] [Aa][Gg] | [=E=e][Ff] [Bdb]2 | %51
w: |||||
 [=E=e][Ff] [Bdb]2 | [^F^f][Gg] [Ee][Cc] | [B,DB]2 z2 | [E^Fe] [F=Ac]2 [EFA] | %55
w: ||||
 [GBe] [EGB]2 [=A,E] | [_A,DG] [A,DF]2 [DFAB] | [G,B,E][Gg] [Aa][Gg] |!f! [=E=e][Ff] !>![Bdb]2 | %59
w: ||||
 [=E=e][Ff] !>![Bdb]2 | [^F^f][Gg] [Ee][Cc] | [B,DB]3 [Ee] | [Dd][Ee] [=E=e][Ff] | [Cc]3 [Dd] | %64
w: |||||
 [Ee][Ff][Gg][cc'] | [Bb][Gg] [Aa][Gg] | [=E=e][Ff] !>![Bdb]2 | [=E=e][Ff] !>![Bdb]2 | %68
w: ||||
 [^F^f][Gg] [Ee][Cc] | [B,DB]2 z2 | [E^Fe] [F=Ac]2 [EFA] | [GBe] [EGB]2 [=A,E] | %72
w: ||||
 [_A,DG] [A,DF]2 [DFAB] | [G,B,E] z!f! g2 |: !>![Af]c/A/ !>![Af]c/A/ | f/c/A/c/ !>![Bg]!>![Af] | %76
w: ||||
 !>![Ge]c/B/ !>![Ge]c/B/ | e/c/B/G/ !>![GBf]!>![GBf] | [Ad]/^c/d/<[AB]/- [AB]2- | %79
w: |||
 [AB]b/c'/- c'/b/c' | gb/c'/- c'/b/c'/b/ | (c'/b/g/e/ c/B/G/)[Gg]/ | !>![Af]c/A/ !>![Af]c/A/ | %83
w: ||||
 f/c/A/c/ !>![Bg]!>![Af] | !>![Ge]c/B/ !>![Ge]c/B/ | e/c/B/G/ !>![GBf]!>![GBe] | %86
w: |||
 [Ad]/^c/ d/<[AB]/- [AB]2- | [AB]b/c'/- c'/b/c' |1 [Ee]4- | [Ee] z !>!g2 :|2 [Ee]4- | %91
w: |||||
 [Ee] z !>![ee'] z |] %92
w: |
V:2
 DC/B,/ DC/B,/ | G=E/F/- F2 | x4 | x4 |: x4 | x4 | x4 | x4 | x4 | x4 | x4 | x4 | x4 | x4 | x4 | %15
 x4 | x4 | x4 | x4 |1 x4 :|2 x2 (F^F) |: x4 | x4 | x4 | x4 | x4 | x4 | x4 | x2 (F^F) | x4 | x4 | %31
 x4 | x4 | x4 | x4 | x4 |1 x2 (F^F) :|2 x4 ||[K:Eb][M:2/4] x4 | x4 | x4 | x4 | x4 | x4 | x4 | x4 | %46
 x4 | x4 | x4 | x4 | x4 | x4 | x4 | x4 | x4 | x4 | x4 | x4 | x4 | x4 | x4 | x4 | x4 | x4 | x4 | %65
 x4 | x4 | x4 | x4 | x4 | x4 | x4 | x4 | x2 (B=B) |: x4 | x4 | x4 | x4 | x4 | x4 | x4 | x4 | x4 | %83
 x4 | x4 | x4 | x4 | x4 |1 x4 | x2 B>=B :|2 x4 | x4 |] %92
V:3
 x4 | x4 | [F,=B,D]/[F,B,D][F,B,D]/ [F,B,D][F,B,D] | [F,CE]2 F,,2 |: %4
 [B,,,B,,][F,B,D] [F,,F,][F,B,D] | [B,,,B,,][F,B,D] [F,,F,][F,B,D] | %6
 [E,,E,][E,G,C] [C,,C,][E,G,C] | [E,,E,][E,G,C]/[E,G,C]/ [E,G,C] z | %8
 [F,,F,][F,A,E] [F,,,F,,][F,A,E] | [F,,F,][F,A,E] [F,,,F,,][F,A,E] | [B,,,B,,][B,DF] [B,_D=EG]2 | %11
 z !>![C,C]!>![F,,F,] z | [B,,,B,,][F,B,D] [F,,F,][F,B,D] | [B,,,B,,][F,B,D] [F,,F,][F,B,D] | %14
 [E,,E,][E,G,C] [C,,C,][E,G,C] | [E,,E,][E,G,C]/[E,G,C]/ [E,G,C] z | %16
 [F,,F,][F,A,E] [F,,,F,,][F,A,E] | [F,,F,][F,A,E] F,,[F,A,CE] | [B,,B,][G,,G,][F,,F,][D,,D,] |1 %19
 [B,,,B,,] z z2 :|2 [B,,,B,,] z z2 |: [E,,E,][G,C] [C,,C,][G,C] | [E,,E,][G,C] [C,,C,][G,C] | %23
 [B,,B,][F,B,] [F,,F,][F,B,] | [B,,B,][F,B,] [F,,F,][F,B,] | F,,F,C,F, | F,,[F,CE] [C,,C,][F,CE] | %27
 [B,,B,][B,,B,] [A,,A,][G,,G,] | [F,,F,] z !>![B,,,B,,]2 | [E,,E,][G,C] [C,,C,][G,C] | %30
 [E,,E,][G,C] [C,,C,][G,C] | [B,,B,][F,B,] [F,,F,][F,B,] | [B,,B,][F,B,] [F,,F,][F,B,] | %33
 F,,F,C,F, | F,,[F,CE] [F,,F,][F,CE] | B,,>F, G,/F,D,/ |1 B,, z !>![B,,,B,,]2 :|2 %37
 B,, z [B,,,B,,] z ||[K:Eb][M:2/4] [B,,B,] [C,C]2 [G,,G,] | %39
 [A,,A,][K:treble] [_B,_EG] [CE^F=A][CEFA] | [_B,D=F_A]z[B,DFA] z | z4 | %42
[K:bass] [B,,,B,,][A,B,D] [F,,F,][A,B,D] | [B,,,B,,][A,B,D] [D,,D,][A,B,D] | %44
 [E,,E,][G,B,E] [E,,E,][_G,=A,] | [E,,E,][B,,E,G,]/[B,,E,G,]/ [B,,E,G,] z | %46
 [B,,,B,,][F,A,B,] D,[F,A,B,D] | [B,,,B,,][F,A,B,] D,[F,A,B,] | [E,,E,][G,B,E] [B,,,B,,][G,B,E] | %49
 [E,,E,][G,B,E] [B,,,B,,][G,B,E] | [B,,,B,,][A,B,D] [F,,F,][A,B,D] | %51
 [B,,,B,,][A,B,D] [D,,D,][A,B,D] | [E,,E,][G,B,E] [E,,E,][_G,=A,] | %53
 [E,,E,][B,,E,G,]/[B,,E,G,]/ [B,,E,G,] z | [=A,,,=A,,][^F,CE] !>!F,2 | %55
 [B,,,B,,][G,B,] !>![C,,C,]2 | B,,,B,, !>!B,,,2 | [E,,E,] z z2 | [B,,,B,,][A,B,D] [F,,F,][A,B,D] | %59
 [B,,,B,,][A,B,D] [D,,D,][A,B,D] | [E,,E,][G,B,E] [E,,E,][_G,=A,] | %61
 [E,,E,][B,,E,G,]/[B,,E,G,]/ [B,,E,G,] z | [B,,,B,,][F,A,B,] D,[F,A,B,D] | %63
 [B,,,B,,][F,A,B,] D,[F,A,B,] | [E,,E,][G,B,E] [B,,,B,,][G,B,E] | [E,,E,][G,B,E] [B,,,B,,][G,B,E] | %66
 [B,,,B,,][A,B,D] [F,,F,][A,B,D] | [B,,,B,,][A,B,D] [D,,D,][A,B,D] | %68
 [E,,E,][G,B,E] [E,,E,][_G,=A,] | [E,,E,][B,,E,G,]/[B,,E,G,]/ [B,,E,G,] z | %70
 [=A,,,=A,,][^F,CE] !>!F,2 | [B,,,B,,][G,B,] !>![C,,C,]2 | B,,,B,, !>!B,,,2 | [E,,E,] z z2 |: %74
 [F,,F,][A,CF] [C,,C,][A,CF] | [A,,,A,,][F,A,D] !>![B,,,B,,]!>![D,,D,] | %76
 [E,,E,][G,B,E] [B,,,B,,][G,B,E] | [E,,,E,,][G,B,E] !>![B,,,B,,]!>![D,,D,] | %78
 [F,,F,][A,B,D] [B,,,B,,][A,B,D] | [F,,F,][A,B,D] [B,,,B,,][A,B,D] | %80
 [E,,E,][G,B,E] [B,,,B,,][G,B,E] | [E,,E,][G,B,E] [B,,,B,,][G,B,E] | [F,,F,][A,CF] [C,,C,][A,CF] | %83
 [A,,,A,,][F,A,D] !>![B,,,B,,]!>![D,,D,] | [E,,E,][G,B,E] [B,,,B,,][G,B,E] | %85
 [E,,,E,,][G,B,E] !>![B,,,B,,]!>![E,,E,] | [F,,F,][A,B,D] [B,,,B,,][A,B,D] | %87
 [F,,F,][A,B,D] [B,,,B,,][A,B,D] |1 [E,E]B,/C/- C/B,/C | [E,,E,][D,,D,][C,,C,][B,,,B,,] :|2 %90
 [E,,E,][C,,C,][B,,,B,,][G,,,G,,] | [E,,,E,,] z [G,B,E] z |] %92

